public/assets/ui-icons/email.svg

<?xml version="1.0" encoding="UTF-8" standalone="no"?>
<svg
   id="Layer_1"
   data-name="Layer 1"
   viewBox="0 0 122.80001 122.8"
   version="1.1"
   sodipodi:docname="email.svg"
   width="122.8"
   height="122.8"
   inkscape:version="1.1 (c68e22c387, 2021-05-23)"
   xmlns:inkscape="http://www.inkscape.org/namespaces/inkscape"
   xmlns:sodipodi="http://sodipodi.sourceforge.net/DTD/sodipodi-0.dtd"
   xmlns="http://www.w3.org/2000/svg"
   xmlns:svg="http://www.w3.org/2000/svg"
   xmlns:rdf="http://www.w3.org/1999/02/22-rdf-syntax-ns#"
   xmlns:cc="http://creativecommons.org/ns#"
   xmlns:dc="http://purl.org/dc/elements/1.1/">
  <defs
     id="defs9" />
  <sodipodi:namedview
     id="namedview7"
     pagecolor="#505050"
     bordercolor="#eeeeee"
     borderopacity="1"
     inkscape:pageshadow="0"
     inkscape:pageopacity="0"
     inkscape:pagecheckerboard="0"
     showgrid="false"
     inkscape:zoom="8.6100262"
     inkscape:cx="61.149639"
     inkscape:cy="38.443553"
     inkscape:window-width="1920"
     inkscape:window-height="992"
     inkscape:window-x="-8"
     inkscape:window-y="-8"
     inkscape:window-maximized="1"
     inkscape:current-layer="Layer_1" />
  <title
     id="title2">email</title>
  <path
     d="M 7.0511296,9.629 H 115.84868 a 7.0711409,8.2325901 0 0 1 7.00113,8.209302 v 87.053528 a 7.0011296,8.1510793 0 0 1 -1.22019,4.65775 2.7804486,3.2371429 0 0 1 -0.66011,1.16445 2.6204228,3.0508325 0 0 1 -0.66011,0.53564 7.0011296,8.1510793 0 0 1 -4.51072,1.92133 H 7.0511296 A 7.0711409,8.2325901 0 0 1 0.05,105.01991 V 17.838302 A 7.0711409,8.2325901 0 0 1 7.0511296,9.629 Z M 6.7510812,101.43344 43.537017,56.928549 6.7510812,20.737757 Z M 49.077911,62.482927 9.7715685,106.8015 H 112.78819 L 75.23213,62.482927 64.230355,73.207418 v 0 a 2.7004357,3.1439877 0 0 1 -3.450556,0 z M 80.68301,56.847038 116.14873,101.79442 V 20.341847 Z M 10.21164,15.92862 62.40006,65.172784 112.28811,15.92862 Z"
     id="path4"
     style="stroke-width:1.07918" />
  <metadata
     id="metadata826">
    <rdf:RDF>
      <cc:Work
         rdf:about="">
        <dc:title>email</dc:title>
      </cc:Work>
    </rdf:RDF>
  </metadata>
</svg>

<svg data-name="Layer 1" width="122.8" height="122.8" xmlns="http://www.w3.org/2000/svg"><path d="M7.051 9.629H115.85a7.071 8.233 0 0 1 7 8.21v87.053a7.001 8.151 0 0 1-1.22 4.658 2.78 3.237 0 0 1-.66 1.164 2.62 3.05 0 0 1-.66.536 7.001 8.151 0 0 1-4.51 1.921H7.05a7.071 8.233 0 0 1-7-8.151V17.838A7.071 8.233 0 0 1 7.051 9.63Zm-.3 91.804L43.537 56.93 6.751 20.738Zm42.327-38.95L9.772 106.802h103.016l-37.556-44.32L64.23 73.208a2.7 3.144 0 0 1-3.45 0zm31.605-5.636 35.466 44.947V20.342ZM10.212 15.929 62.4 65.173l49.888-49.244Z" style="stroke-width:1.07918"/></svg>
